X: 107204
T: MARRY ME NOW
Q: "Reel."
R:  Reel.
%R: reel
B: James Kerr "Merry Melodies" v.1 p.7 s.2 #4
Z: 2017 John Chambers <jc:trillian.mit.edu>
M: C
L: 1/8
K: Am
uG |\
EA A/A/A c2ce | dcBA GABG |\
AE E/E/E c2ce | dBgB A2-A :|\
g |\
agea geae | gedg BGdB |
agea geae | gegB A/A/A (Ag) |\
agea geae | gedg BGdB |\
cAdB ecae | gegB A2-A |]

%%sep 1 1 500
%%sep 1 1 500

